static/assets/images/logo.svg

<?xml version="1.0" encoding="UTF-8"?>
<svg id="Calque_1" data-name="Calque 1" xmlns="http://www.w3.org/2000/svg" viewBox="0 0 1663.01 723.21">
  <defs>
    <style>
      .cls-1 {
        fill: #fff;
      }
    </style>
  </defs>
  <g id="YX7YYM">
    <polygon points="1663.01 20.34 1663.01 622.17 989.57 723.21 988.96 601.4 392.33 710.68 391.74 606.43 .12 717.14 0 109.17 395.15 0 395.65 113.52 990.23 1.57 990.76 116.26 1663.01 20.34"/>
  </g>
  <g>
    <path class="cls-1" d="M188.38,539c-13.38,0-26.27-1.53-38.68-4.58-12.42-3.05-24.35-7.92-35.81-14.61-11.46-6.68-20.83-16.42-28.08-29.22-7.26-12.79-10.89-27.79-10.89-44.98-.39-30.94,10.31-54.52,32.09-70.77,21.77-16.23,52.9-24.35,93.4-24.35h92.25v-18.34c0-16.81-6.88-29.51-20.63-38.1s-31.52-12.89-53.29-12.89c-41.64,0-65.9,13.75-72.77,41.26l-63.03,1.15c.76-30.17,14.04-54.05,39.82-71.63,25.79-17.57,57.39-26.36,94.83-26.36s70.19,9.17,97.12,27.5c26.93,18.34,40.4,42.03,40.4,71.05v210.29h-62.46v-45.84c-8.79,12.23-22.06,23.69-39.82,34.38-17.76,10.7-39.25,16.04-64.46,16.04ZM193.54,484.57c25.21,0,48.03-8.59,68.47-25.79,20.43-17.19,30.66-37.43,30.66-60.74h-80.79c-24.84,0-43.26,4.68-55.29,14.04-12.03,9.37-17.29,21.11-15.76,35.24,1.15,12.99,6.88,22.45,17.19,28.36,10.31,5.93,22.15,8.88,35.53,8.88Z"/>
    <path class="cls-1" d="M532.75,539c-41.26,0-76.69-15.47-106.29-46.41-29.61-30.94-44.41-67.61-44.41-110.02s14.7-81.08,44.12-111.45c29.41-30.37,64.94-45.55,106.58-45.55,37.05,0,67.42,12.8,91.11,38.39v-130.64h74.49v401.1h-74.49v-32.66c-24.07,24.84-54.44,37.25-91.11,37.25ZM540.2,471.39c24.07,0,44.88-8.78,62.46-26.36,17.57-17.57,26.36-38.39,26.36-62.46s-8.79-44.98-26.36-62.74c-17.57-17.76-38.39-26.64-62.46-26.64s-45.75,8.79-62.74,26.36c-17,17.58-25.5,38.59-25.5,63.03s8.5,45.37,25.5,62.74c16.99,17.39,37.91,26.07,62.74,26.07Z"/>
    <path class="cls-1" d="M836.43,539c-12.61,0-25.02-1.43-37.24-4.3-12.23-2.87-24.35-7.64-36.39-14.33-12.03-6.68-21.77-16.62-29.22-29.8-7.45-13.18-11.17-28.74-11.17-46.7-.38-31.7,10.31-55.29,32.09-70.77,21.77-15.47,51.95-23.21,90.53-23.21l89.39-.57v-16.04c0-15.27-6.12-26.55-18.34-33.81-12.23-7.25-28.27-10.89-48.13-10.89-37.44,0-59.79,12.23-67.04,36.67l-71.05.57c.38-30.17,13.75-54.44,40.11-72.77,26.36-18.34,58.45-27.5,96.26-27.5s70.85,9.17,97.98,27.5c27.12,18.34,40.68,42.21,40.68,71.62v209.72h-70.48v-37.82c-8.41,10.7-21.11,20.44-38.1,29.22-17,8.78-36.96,13.18-59.88,13.18ZM842.73,477.69c22.92,0,43.92-7.35,63.03-22.06,19.1-14.7,28.65-32.37,28.65-53h-75.64c-21.4,0-37.44,4.01-48.13,12.03-10.7,8.02-15.28,18.34-13.75,30.94,2.29,21.4,17.57,32.09,45.84,32.09Z"/>
    <path class="cls-1" d="M1039.84,654.75V230.73h83.08v25.21c22.92-19.86,50.8-29.8,83.66-29.8,40.87,0,76.11,15.47,105.72,46.41,29.6,30.94,44.41,67.61,44.41,110.02s-14.71,80.99-44.12,111.16c-29.42,30.18-64.75,45.27-106.01,45.27-32.47,0-60.36-10.31-83.66-30.94v146.69h-83.08ZM1198.56,464.51c22.92,0,42.12-8.11,57.59-24.35,15.47-16.23,23.21-35.43,23.21-57.59s-7.74-41.26-23.21-57.3c-15.47-16.04-34.67-24.07-57.59-24.07s-41.26,8.12-57.3,24.35c-16.04,16.24-24.07,35.24-24.07,57.01s8.02,40.88,24.07,57.3c16.04,16.43,35.14,24.64,57.3,24.64Z"/>
    <path class="cls-1" d="M1582.47,531.55c-48.9,14.13-90.16,12.41-123.77-5.16-33.62-17.57-50.42-48.71-50.42-93.4l.57-130.64h-51.57v-71.62h51.57l.57-67.04h81.94l-.57,67.04h87.67v71.62h-87.67l-.57,130.07c0,8.02,3.34,14.71,10.03,20.05,6.68,5.35,16.81,8.51,30.37,9.46,13.55.96,30.84-2.58,51.86-10.6v80.22Z"/>
  </g>
</svg>

<svg width="1664" height="724" viewBox="0 0 1664 724" fill="none" xmlns="http://www.w3.org/2000/svg">
<path d="M1663.01 20.34V622.17L989.57 723.21L988.96 601.4L392.33 710.68L391.74 606.43L0.12 717.14L0 109.17L395.15 0L395.65 113.52L990.23 1.57L990.76 116.26L1663.01 20.34Z" fill="black"/>
<path d="M188.38 539C175 539 162.11 537.47 149.7 534.42C137.28 531.37 125.35 526.5 113.89 519.81C102.43 513.13 93.06 503.39 85.81 490.59C78.55 477.8 74.92 462.8 74.92 445.61C74.53 414.67 85.23 391.09 107.01 374.84C128.78 358.61 159.91 350.49 200.41 350.49H292.66V332.15C292.66 315.34 285.78 302.64 272.03 294.05C258.28 285.46 240.51 281.16 218.74 281.16C177.1 281.16 152.84 294.91 145.97 322.42L82.94 323.57C83.7 293.4 96.98 269.52 122.76 251.94C148.55 234.37 180.15 225.58 217.59 225.58C255.03 225.58 287.78 234.75 314.71 253.08C341.64 271.42 355.11 295.11 355.11 324.13V534.42H292.65V488.58C283.86 500.81 270.59 512.27 252.83 522.96C235.07 533.66 213.58 539 188.37 539H188.38ZM193.54 484.57C218.75 484.57 241.57 475.98 262.01 458.78C282.44 441.59 292.67 421.35 292.67 398.04H211.88C187.04 398.04 168.62 402.72 156.59 412.08C144.56 421.45 139.3 433.19 140.83 447.32C141.98 460.31 147.71 469.77 158.02 475.68C168.33 481.61 180.17 484.56 193.55 484.56L193.54 484.57Z" fill="white"/>
<path d="M532.75 539C491.49 539 456.06 523.53 426.46 492.59C396.85 461.65 382.05 424.98 382.05 382.57C382.05 340.16 396.75 301.49 426.17 271.12C455.58 240.75 491.11 225.57 532.75 225.57C569.8 225.57 600.17 238.37 623.86 263.96V133.32H698.35V534.42H623.86V501.76C599.79 526.6 569.42 539.01 532.75 539.01V539ZM540.2 471.39C564.27 471.39 585.08 462.61 602.66 445.03C620.23 427.46 629.02 406.64 629.02 382.57C629.02 358.5 620.23 337.59 602.66 319.83C585.09 302.07 564.27 293.19 540.2 293.19C516.13 293.19 494.45 301.98 477.46 319.55C460.46 337.13 451.96 358.14 451.96 382.58C451.96 407.02 460.46 427.95 477.46 445.32C494.45 462.71 515.37 471.39 540.2 471.39Z" fill="white"/>
<path d="M836.43 539C823.82 539 811.41 537.57 799.19 534.7C786.96 531.83 774.84 527.06 762.8 520.37C750.77 513.69 741.03 503.75 733.58 490.57C726.13 477.39 722.41 461.83 722.41 443.87C722.03 412.17 732.72 388.58 754.5 373.1C776.27 357.63 806.45 349.89 845.03 349.89L934.42 349.32V333.28C934.42 318.01 928.3 306.73 916.08 299.47C903.85 292.22 887.81 288.58 867.95 288.58C830.51 288.58 808.16 300.81 800.91 325.25L729.86 325.82C730.24 295.65 743.61 271.38 769.97 253.05C796.33 234.71 828.42 225.55 866.23 225.55C904.04 225.55 937.08 234.72 964.21 253.05C991.33 271.39 1004.89 295.26 1004.89 324.67V534.39H934.41V496.57C926 507.27 913.3 517.01 896.31 525.79C879.31 534.57 859.35 538.97 836.43 538.97V539ZM842.73 477.69C865.65 477.69 886.65 470.34 905.76 455.63C924.86 440.93 934.41 423.26 934.41 402.63H858.77C837.37 402.63 821.33 406.64 810.64 414.66C799.94 422.68 795.36 433 796.89 445.6C799.18 467 814.46 477.69 842.73 477.69Z" fill="white"/>
<path d="M1039.84 654.75V230.73H1122.92V255.94C1145.84 236.08 1173.72 226.14 1206.58 226.14C1247.45 226.14 1282.69 241.61 1312.3 272.55C1341.9 303.49 1356.71 340.16 1356.71 382.57C1356.71 424.98 1342 463.56 1312.59 493.73C1283.17 523.91 1247.84 539 1206.58 539C1174.11 539 1146.22 528.69 1122.92 508.06V654.75H1039.84ZM1198.56 464.51C1221.48 464.51 1240.68 456.4 1256.15 440.16C1271.62 423.93 1279.36 404.73 1279.36 382.57C1279.36 360.41 1271.62 341.31 1256.15 325.27C1240.68 309.23 1221.48 301.2 1198.56 301.2C1175.64 301.2 1157.3 309.32 1141.26 325.55C1125.22 341.79 1117.19 360.79 1117.19 382.56C1117.19 404.33 1125.21 423.44 1141.26 439.86C1157.3 456.29 1176.4 464.5 1198.56 464.5V464.51Z" fill="white"/>
<path d="M1582.47 531.55C1533.57 545.68 1492.31 543.96 1458.7 526.39C1425.08 508.82 1408.28 477.68 1408.28 432.99L1408.85 302.35H1357.28V230.73H1408.85L1409.42 163.69H1491.36L1490.79 230.73H1578.46V302.35H1490.79L1490.22 432.42C1490.22 440.44 1493.56 447.13 1500.25 452.47C1506.93 457.82 1517.06 460.98 1530.62 461.93C1544.17 462.89 1561.46 459.35 1582.48 451.33V531.55H1582.47Z" fill="white"/>
</svg>
